X: 14957
T: Geese In The Bog, The
R: jig
M: 6/8
K: Dmajor
dFF AFF|DFF AFF|dFF AFE|FBB B2c|
dFF AFF|DFF AFF|dcB AFE|FBB B2A:|
dff aff|bff aff|dff aff|abb b2f|
dff aff|bff afe|dcB AFE|FBB B2c:|

